!!!COM: Bach, Johann Sebastian
!!!OPR: Joh. Seb. Bachs vierstimmige Choralgesänge
!!!XEN: Four-part Chorales
!!!OTL: Chorale 15. An Wasserflüssen Babylon
!!!SCT: BWV 267
!!!SCA: Thematisch-systematisches Verzeichnis der musikalischen Werke Johann Sebastian Bach: Bach-Werke-Verzeichnis (Schmieder)
!!!YOR: Bach Gesellschaft Edition xxxix
!!!ENC: Steven Rasmussen
!!!CDT: 1685/3//-1750/7/28/
!!!OCY: Deutschland
!!!YEC: Copyright (c) 1994, 2000 Center for Computer Assisted Research in the Humanities
!!!YEM: Rights to all derivative editions reserved
!!!YEN: United States of America
**kern	**silbe	**kern	**silbe	**kern	**silbe	**kern	**silbe
*I"[BASSO]	*I"[BASSO]	*I"[TENORE]	*I"[TENORE]	*I"[ALTO]	*I"[ALTO]	*I"[SOPRANO]	*I"[SOPRANO]
*>[A,A,B]	*	*>[A,A,B]	*	*>[A,A,B]	*	*>[A,A,B]	*
*>A	*	*>A	*	*>A	*	*>A	*
*clefF4	*	*clefGv2	*	*clefG2	*	*clefG2	*
*k[f#]	*	*k[f#]	*	*k[f#]	*	*k[f#]	*
*G:	*	*G:	*	*G:	*	*G:	*
*M4/4	*	*M4/4	*	*M4/4	*	*M4/4	*
4G	.	4B	.	4g	.	4dd	AnalsEines
=1	=1	=1	=1	=1	=1	=1	=1
4C	.	8cL	.	4g	.	4ee	Was-wirLämm-geht
.	.	8BJ	.	.	.	.	.
4D	.	4A	.	4f#	.	8ddL	-ser-ge--leinund
.	.	.	.	.	.	8ccJ	.
4E	.	4e	.	4g	.	8bL	-flüs--dach-gehtbü-
.	.	.	.	.	.	8ccJ	.
8F#L	.	8AL	.	4f#	.	4dd	-sen-tenund-sset
8GJ	.	8BJ	.	.	.	.	.
=2	=2	=2	=2	=2	=2	=2	=2
4A	.	8cL	.	(8e	.	8ccL	Ba-anträgtin
.	.	8eJ	.	4g)	.	8bJ	.
4D	.	4d	.	.	.	4cc	-by-Zi-dieGe-
.	.	.	.	8f#	.	.	.
4G;	.	4d;	.	4g;	.	4b;	-lon-on,Schuld-duld
4F#	.	4d	.	4a	.	4a	dadaderdie
=3	=3	=3	=3	=3	=3	=3	=3
8GL	.	4d	.	4g	.	4b	sa-wein-WeltSün-
8F#J	.	.	.	.	.	.	.
4E	.	8GL	.	4g	.	4cc	-ssen-tenund-den
.	.	8AJ	.	.	.	.	.
4BB	.	8BL	.	4g	.	4dd	wirwirih-al-
.	.	8GJ	.	.	.	.	.
4C	.	4e	.	4g	.	8ccL	mitvon-rer-ler
.	.	.	.	.	.	8bJ	.
=4	=4	=4	=4	=4	=4	=4	=4
2D	.	8AL	.	4g	.	8aL	Schmer-Her-Kin-Sün-
.	.	8BJ	.	.	.	8gJ	.
.	.	4c	.	4f#	.	4a	.
4GG;	.	4B;	.	4d;	.	4g;	-zen,-zen.-der;-der.
=:|!	=:|!	=:|!	=:|!	=:|!	=:|!	=:|!	=:|!
*>B	*	*>B	*	*>B	*	*>B	*
4G	.	4B	.	4d	.	4g	WirEs
=5	=5	=5	=5	=5	=5	=5	=5
4F#	.	4A	.	8dL	.	4a	hin-geht
.	.	.	.	8eJ	.	.	.
8EL	.	4d	.	4f#	.	4b	-genda-
8DJ	.	.	.	.	.	.	.
4E	.	4G	.	4e	.	8ccL	auf-hin,
.	.	.	.	.	.	8bJ	.
4F#	.	4A	.	8eL	.	4a	mitwird
.	.	.	.	8dJ	.	.	.
=6	=6	=6	=6	=6	=6	=6	=6
4G	.	(8A	.	4d	.	4b	schwe-matt
.	.	4G)	.	.	.	.	.
4D	.	.	.	4c	.	4a	-remund
.	.	8F#	.	.	.	.	.
4GG;	.	4G;	.	4B;	.	4g;	Mutkrank,
4C	.	4G	.	4e	.	8gL	dieer-
.	.	.	.	.	.	8aJ	.
=7	=7	=7	=7	=7	=7	=7	=7
8GL	.	4G	.	4d	.	4b	Har--gibt
8FnJ	.	.	.	.	.	.	.
8EL	.	4G	.	4e	.	4cc	-fensich
8DJ	.	.	.	.	.	.	.
8CL	.	4G	.	4fn	.	4dd	undauf
8BBJ	.	.	.	.	.	.	.
8CL	.	4G	.	8eL	.	4ee	diedie
8DJ	.	.	.	8f#J	.	.	.
=8	=8	=8	=8	=8	=8	=8	=8
4E	.	8GL	.	8gL	.	4b	Or-Wür-
.	.	16AL	.	8f#J	.	.	.
.	.	16BJJ	.	.	.	.	.
4AA	.	4A	.	8gL	.	4cc#	-geln-ge-
.	.	.	.	8aJ	.	.	.
4D;	.	4A;	.	4f#;	.	4dd;	gut-bank,
8GL	.	4G	.	4d	.	8bL	anver-
8AJ	.	.	.	.	.	8ccnJ	.
=9	=9	=9	=9	=9	=9	=9	=9
4B	.	8GL	.	4g	.	4dd	ih--zeiht
.	.	8dJ	.	.	.	.	.
4c	.	8cL	.	4g	.	4ee	-resich
.	.	8BJ	.	.	.	.	.
4F#	.	4A	.	4a	.	8ddL	Bäum'al-
.	.	.	.	.	.	8ccJ	.
4G#	.	4e	.	4b	.	4b	ler-ler
=10	=10	=10	=10	=10	=10	=10	=10
4A	.	2e	.	8bL	.	2cc	Wei-Freu-
.	.	.	.	8g#J	.	.	.
4AA	.	.	.	4a	.	.	.
4E;	.	4e;	.	4g#;	.	4b;	-den,-den;
4GG#	.	8eL	.	4b	.	4ee	diees
.	.	8dJ	.	.	.	.	.
=11	=11	=11	=11	=11	=11	=11	=11
8AAL	.	8cL	.	4a	.	4ee	drin-nim-
8BBJ	.	8BJ	.	.	.	.	.
8CL	.	4A	.	8eL	.	4ee	-nen-met
8AAJ	.	.	.	8cJ	.	.	.
4Fn	.	8AL	.	8dL	.	4a	sindan
.	.	8G#J	.	8eJ	.	.	.
8EL	.	8AL	.	4fn	.	4dd	inSchmach,
8DJ	.	8BJ	.	.	.	.	.
=12	=12	=12	=12	=12	=12	=12	=12
4E	.	(8G#	.	4e	.	4cc	ih-Hohn
.	.	4A)	.	.	.	.	.
4EE	.	.	.	4d	.	4b	-remund
.	.	8G#	.	.	.	.	.
4AA;	.	4A;	.	4c;	.	4a;	Land;Spott,
4AA	.	8EL	.	4a	.	4cc	daAngst,
.	.	8F#J	.	.	.	.	.
=13	=13	=13	=13	=13	=13	=13	=13
8BBL	.	4G	.	8dL	.	4b	muss-Wun-
8C#J	.	.	.	8eJ	.	.	.
4D	.	8dL	.	4fn	.	4a	-ten-den,
.	.	8cJ	.	.	.	.	.
4D	.	4B-	.	8eL	.	4g	wirStrie-
.	.	.	.	8dJ	.	.	.
4C#	.	4A	.	4e	.	8aL	viel-men,
.	.	.	.	.	.	8gJ	.
=14	=14	=14	=14	=14	=14	=14	=14
4D	.	4A	.	(8e	.	4fn	SchmachKreuz
.	.	.	.	4d)	.	.	.
4AA	.	4G	.	.	.	4e	undund
.	.	.	.	8c#	.	.	.
4D;	.	4F#;	.	4d;	.	4d;	Schand'Tod,
4BB	.	4F#	.	8dL	.	4d	täg-und
.	.	.	.	8cnJ	.	.	.
=15	=15	=15	=15	=15	=15	=15	=15
4E	.	4G	.	8BL	.	4g	-lichspricht:
.	.	.	.	8AJ	.	.	.
4D	.	4d	.	8GL	.	4a	vonIch
.	.	.	.	8F#J	.	.	.
8GL	ih-	4d	ih-	4G	ih-	4.b	ih-will
8F#J	.	.	.	.	.	.	.
4E	-nen	4e	-nen	4g	.	.	.
.	.	.	.	.	.	8cc	.
=16	=16	=16	=16	=16	=16	=16	=16
8BBL	lei-	2d	lei-	4f#	.	4dd	.
8AAJ	.	.	.	.	.	.	.
4GG	.	.	.	2g	-nen	8ccL	-nengern
.	.	.	.	.	.	8bJ	.
8CL	.	8eL	.	.	.	4a	lei-lei-
8BBJ	.	8dJ	.	.	.	.	.
4AA	.	4c	.	[4g	lei-	8bL	.
.	.	.	.	.	.	8ccJ	.
=17	=17	=17	=17	=17	=17	=17	=17
8DL	.	8dL	.	4g]	.	2a	.
8CJ	.	8e	.	.	.	.	.
4D	.	8d	.	4f#	.	.	.
.	.	8cJ	.	.	.	.	.
4GG;	-den.	4B;	-den.	4d;	-den.	4g;	-den.-den.
==|!	==|!	==|!	==|!	==|!	==|!	==|!	==|!
*-	*-	*-	*-	*-	*-	*-	*-
!!!RWG: Key is interpreted using the Humdrum key tool.
!!!URL-pdf: https://s9.imslp.org/files/imglnks/usimg/6/6b/IMSLP24489-PMLP09471-CCARH_Bach_Chorales.pdf#page=9 Musedata edition
!!!URL-pdf: https://s9.imslp.org/files/imglnks/usimg/7/7a/IMSLP04155-Bach_-_BGA_253-438.pdf#page=9 	Bach-Gesellschaft Ausgabe, Band 39 (pp.175-276) Leipzig: Breitkopf und Härtel, 1892. Plate B.W. XXXIX.
!!!END: 1994/05/06
!!!EMD: Converted from MuseData to Humdrum Dec 19, 2000, by Andreas Kornstaedt using muse2kern.
!!!EED: Craig Stuart Sapp
!!!EEV: 2024/03/31
!!!filter-keyboard: extract -i kern | satb2gs
!!!title: @{OTL} (@{SCT})
